X:119
M:2/4
L:1/8
K:D
| AB cd | ed cd | eA AB | c/B/A GE | 
| ag eg | ag e2 | fd de | fd d2 | 
ag eg | ag ec | BA Bc | BA A2 :|| 

